X:1
T:Mia sorte empia
T:Luca Marenzio
T:Source : Il secondo Libro delle canzonette alla Napolitana a tre voci---Venetia---G.Vincenti---1587. Editor : André Vierendeels (04/05/17).
T:Notes : Original clefs : G2, C1, F3 Editorial accidentals above the staff "Seconda impressione" Music collected by Attilio Gualtieri m10: source has no repeats in S1 and S2 
T:Mia sorte empia
T:©
T:©
Z:©
%%score [ 1 2 3 ]
L:1/8
Q:1/4=120
M:4/4
K:C
V:1 treble nm="Soprano 1" snm="S 1"
V:2 treble nm="Soprano 2" snm="S 2"
V:3 treble-8 nm="Tenor" snm="T"
V:1
"^1)" d8 | e8 | d4 c4- | c2 B4 A2 | A4 z2 B2 | d3 c d2 e2 | f4 e4 | z2 g4 f2- | f2 e2 d4 | %9
w: Mia|sor-|t'em- pia'e|_ ru- bel-|la, da|voi par- tir mi|for- za|al- ma|_ mia stel-|
w: Ahi|stra-|no'as- pro|_ do- lo-|re, men-|tre par- to da|vo- i|si par-|* te'il co-|
[M:2/4] c4 :: g4- |[M:4/4] g4 fefg | f3 g f2 e2 | d4 d4 | g2 f4 d2 | e3 e e2 d2 | c4 B4 | A8 | %18
w: la,|ohi-|* me che so- lo'a|vol- ger- v'il pen-|sie- ro,|ag- ghiac- cio'et|ar- do'in- te- ne-|ris- co'e|pe-|
w: re,|ahi|_ par- ti- t'a- cer-|bis- si- ma'e cru-|de- le,|che can- gi'o-|gni mio dol- ce'in|tos- co'e|fe-|
 B8 :| %19
w: ro.|
w: le.|
V:2
"^2)""^1)" B8 | c8 | B2 A4 G2 | ^F2 G4 FE | ^F4 z2 G2 | B3 A B2 ^c2 |"^-natural" d2 d4 c2- | %7
w: Mia|sor-|t'em- pia'e ru-|bel- * * *|la, da|voi par- tir _|mi for- za|
w: In|que-|sta lon- ta-|nan- * * *|za, sol|un _ _ con-|for- to'a le|
 c2 B2 ABcA | B2 c4 B2 |[M:2/4] c4 :: e4- |[M:4/4] e4 dcde | d3 e d2 c2 |"^-natural" B4 B4 | %14
w: _ al- ma mi- a stel-||la,|ohi|_ me che so- lo'a|vol- ger- v'il pen-|sie- ro,|
w: _ pe- ne'a- * * *|van- * *|za,|che|_ se ben lun- gi'a|gli'oc- chi miei sa-|re- te,|
 G2 A4 B2 | c3 c c2 A2 | G4 G4 | ^F2 G4 F2 | G8 :| %19
w: ag- ghiac- cio'et|ar- do'in- te- ne|ris- co'e|pe- * *|ro.|
w: den- tro'al mio|pet- to'e- ter- no'al-|ber- go'ha-|vre- * *|te.|
V:3
"^3)""^1)""^4)" G8 | C8 | G2 F4 E2 | D8 | D4 z2 G2 | G3 A G2 E2 | D4 A4 | E4 F4 | G8 |[M:2/4] C4 :: %10
w: Mia|sor-|t'em- pia'e ru-|bel-|la, da|voi per- tir mi|for- za|al- ma|stel-|la,|
w: Co-|si|dol- ce mia|spe-|me, se|re- gna con bel-|tà pie-|ta- de'in-|sie-|me,|
 c4- |[M:4/4] c4 _BABc | _B3 c B2 A2 | G4 G4 | E2 F4 G2 | C3 C C2 D2 | E2 F2 G2 FE | D2 C2 D4 | %18
w: ohi|_ me che so- lo'a|vol- ger- v'il pen-|sie- ro,|ag- ghiac- cio'et|ar- do'in- te- ne|ris- co'e pe- * *||
w: non|_ vi dis- piac- cia|di pen- sar tal-|ho- ra,|a chi vi|pian- ge, ri- ver-|ri- sc'e ho- * *|* * no-|
 G8 :| %19
w: ro.|
w: ra|

